packages/tokens/icons/lackOfDiversity/size24Px.svg

<svg viewBox="0 0 24 24" fill="none" xmlns="http://www.w3.org/2000/svg" width="1em" height="1em"><circle cx="7" cy="7" r="3.5" stroke="currentColor"/><path d="M16.567 3.75C16.7594 3.41667 17.2406 3.41667 17.433 3.75L20.8971 9.75C21.0896 10.0833 20.849 10.5 20.4641 10.5L13.5359 10.5C13.151 10.5 12.9104 10.0833 13.1029 9.75L16.567 3.75Z" stroke="currentColor"/><path d="M16.567 13.75C16.7594 13.4167 17.2406 13.4167 17.433 13.75L20.8971 19.75C21.0896 20.0833 20.849 20.5 20.4641 20.5H13.5359C13.151 20.5 12.9104 20.0833 13.1029 19.75L16.567 13.75Z" stroke="currentColor"/><path d="M6.56699 13.75C6.75944 13.4167 7.24056 13.4167 7.43301 13.75L10.8971 19.75C11.0896 20.0833 10.849 20.5 10.4641 20.5H3.5359C3.151 20.5 2.91044 20.0833 3.10289 19.75L6.56699 13.75Z" stroke="currentColor"/></svg>

<svg xmlns="http://www.w3.org/2000/svg" fill="none" viewBox="0 0 24 24" width="1em" height="1em"><circle cx="7" cy="7" r="3.5" stroke="currentColor"/><path stroke="currentColor" d="M16.567 3.75a.5.5 0 0 1 .866 0l3.464 6a.5.5 0 0 1-.433.75h-6.928a.5.5 0 0 1-.433-.75l3.464-6Zm0 10a.5.5 0 0 1 .866 0l3.464 6a.5.5 0 0 1-.433.75h-6.928a.5.5 0 0 1-.433-.75l3.464-6Zm-10 0a.5.5 0 0 1 .866 0l3.464 6a.5.5 0 0 1-.433.75H3.536a.5.5 0 0 1-.433-.75l3.464-6Z"/></svg>
